X:1
T:Title
%%score ( 1 2 ) { 3 | 4 }
L:1/8
Q:1/4=112
M:4/4
K:Eb
V:1 treble nm="Grand Piano, Staff"
V:2 treble 
V:3 bass nm="Choir Pad, Nassau"
V:4 bass 
V:1
 [EG]2 [EG]2 [FB]2 [DB]2 | E2 [DF]2 [EG]4 | [Ec]2 [Fd]2 [Ee]2 [EG]2 | [EF]2 [DF]2 E4 | %4
w: By~Johann~Rosenm�ller~(1615\-1686) * * *||||
 [DB]2 [B,F]2 [EG]2 [FG]2 | [=Ec]2 [CG]2 [F=A]4 | z4 .G2 z2 | [Gc]2 c-[Ec] [DB]4 | %8
w: ||||
 [Fc]2 [Fd]2 [Ee]2 [DG]2 | [CG]2 [CF]2 [=B,G]4 | [Cc]2 [Fd]2 [Ee]2 [EG]2 | [EF]2 [DF]2 E4- | %12
w: ||||
 E4 z4 |] %13
w: |
V:2
 x8 | x8 | x8 | x8 | x8 | x8 | [FB]2 [DF]2 E-[E=A] [DB]2 | z2 .F2 z4 | x8 | x8 | x8 | x8 | x8 |] %13
V:3
 B,2 B,2 B,2 B,2 | G,2 B,2 B,4 | C2 A,2 G,2 C2 | C2 B,2 G,4 | F,2 B,2 B,2 =B,2 | C2 C2 C4 | %6
 B,2 B,2[K:bass] B,2 B,2 | B,2 =A,2 B,4 | A,2 A,2 G,2 G,2 | E,2 C,2 D,4 | A,2 A,2 G,2 B,2 | %11
 C2 B,2 G,4- | G,4 z4 |] %13
V:4
 E,2 E,2 D,2 B,,2 | C,2 B,,2 E,4 | A,2 F,2 C,2 C,2 | A,,2 B,,2 E,4 | B,,2 D,2 E,2 D,2 | %5
 C,2 =E,2 F,4 | D,2 B,,2 E,2 G,2 | E,2 F,2 B,,4 | F,2 B,,2 C,2 C,2 | B,,2 A,,2 G,,4 | %10
 A,,2 F,2 C,2 B,,2 | A,,2 B,,2 E,4- | E,4 z4 |] %13

